X:80
T:Tallewan
M:6/8
Q:1/8=300
K:G
%%MIDI channel 1
%%MIDI program 72
%%MIDI transpose 8
%%MIDI grace 1/8
%%MIDI ratio 3 1
B|d2B BAB|G2d def|gfg edB|gfg A2B|d2B BAB|G2d def|gfg edB|dcA G2::
z|d2z g3|efg d3|B2B BAB|dBG A3|d2z g3|efg d2B|ded dBG|ABA G2:|

